X: 187
T: Lord Clive
%R: march, reel
M: 2/4
L: 1/8
Z: 2014 John Chambers <jc:trillian.mit.edu>
B: Chas & Sam Thompson "Twenty Four Country Dances for the Year 1772", London 1772, p.94
F: http://folkopedia.efdss.org/images/8/89/Thompson_24_1772.PDF
N: The 2nd strain has initial repeat but no final repeat; fixed to agree with dance phrasing.
K: F
|:\
fc AF | C2 B2 | Ac EG | FA ce |\
fc AF | C2 B2 | Adc=B | c4 :|\
|:\
cegb | a2gf | egec | BdBG |
cegb | afef | B2TA2 | G3e |\
fcAF | CEGB | AcEG | FA ce |\
fc AF | GdcB | AGFE | F4 :|
% - - - - - - - - - - - - - - - - - - - - - - - - -
%%begintext align
%% Hands all four a cross and foot it .|. hands all four a cross
%% back a gain and Foot it :|. cross over two Cu: and half
%% figure right Hands and left .|: :|:
%%endtext
% - - - - - - - - - - - - - - - - - - - - - - - - -

%%sep 1 1 500
%%sep 1 1 500
